wp-content/plugins/HyperSiteReviews/dist/images/google-logo-borderless.svg

<?xml version="1.0" encoding="UTF-8"?>
<svg version="1.1" viewBox="0 0 48 48" xmlns="http://www.w3.org/2000/svg"><g transform="matrix(2.2263 0 0 2.1818 -2.2263 -2.1818)" stroke-width=".45373"><path d="m22.56 12.25c0-0.78-0.07-1.53-0.2-2.25h-10.36v4.26h5.92c-0.26 1.37-1.04 2.53-2.21 3.31v2.77h3.57c2.08-1.92 3.28-4.74 3.28-8.09z" fill="#4285f4"/><path d="m12 23c2.97 0 5.46-0.98 7.28-2.66l-3.57-2.77c-0.98 0.66-2.23 1.06-3.71 1.06-2.86 0-5.29-1.93-6.16-4.53h-3.66v2.84c1.81 3.59 5.52 6.06 9.82 6.06z" fill="#34a853"/><path d="m5.84 14.09c-0.22-0.66-0.35-1.36-0.35-2.09s0.13-1.43 0.35-2.09v-2.84h-3.66c-0.75 1.48-1.18 3.15-1.18 4.93s0.43 3.45 1.18 4.93l2.85-2.22z" fill="#fbbc05"/><path d="m12 5.38c1.62 0 3.06 0.56 4.21 1.64l3.15-3.15c-1.91-1.78-4.39-2.87-7.36-2.87-4.3 0-8.01 2.47-9.82 6.07l3.66 2.84c0.87-2.6 3.3-4.53 6.16-4.53z" fill="#ea4335"/></g></svg>

<svg xmlns="http://www.w3.org/2000/svg" height="24" viewBox="0 0 24 24" width="24"><path d="M22.56 12.25c0-.78-.07-1.53-.2-2.25H12v4.26h5.92c-.26 1.37-1.04 2.53-2.21 3.31v2.77h3.57c2.08-1.92 3.28-4.74 3.28-8.09z" fill="#4285F4"/><path d="M12 23c2.97 0 5.46-.98 7.28-2.66l-3.57-2.77c-.98.66-2.23 1.06-3.71 1.06-2.86 0-5.29-1.93-6.16-4.53H2.18v2.84C3.99 20.53 7.7 23 12 23z" fill="#34A853"/><path d="M5.84 14.09c-.22-.66-.35-1.36-.35-2.09s.13-1.43.35-2.09V7.07H2.18C1.43 8.55 1 10.22 1 12s.43 3.45 1.18 4.93l2.85-2.22.81-.62z" fill="#FBBC05"/><path d="M12 5.38c1.62 0 3.06.56 4.21 1.64l3.15-3.15C17.45 2.09 14.97 1 12 1 7.7 1 3.99 3.47 2.18 7.07l3.66 2.84c.87-2.6 3.3-4.53 6.16-4.53z" fill="#EA4335"/><path d="M1 1h22v22H1z" fill="none"/></svg>
